; Output: QVOL_HEX.M
; Console: QVOL_HEX.OUT

#Title QVOL_HEX
#Option /v/c

; Hit uppercase Q variants (qset2) with percent and numeric lengths
A l4 Q%64 c d e Q3 f g

; Exercise volume relative/absolute paths (vset*, vss*, vsetm*)
A v10 c v+2 d v-4 e v(2 f v)1 g ) a ( b V120 c V0 d

; Hex length parsing ($) to trigger hexget8/hexcal8
A l$10 c d e

; Tie/repeat and gate envelope helpers
A c&c         ; basic tie
A l8 [c d]2   ; repeat_count=2 loop
A q2-4 c d e  ; q range and get_clock paths

; Simple tempo with hex
A t$3c c d e

